X:16787
T:THE GREEN MAN HORNPIPE
B:John of the Greeny Cheshire Way
N: John Offord, Reproduced with permission
M:3/2
L:1/8
K:G
P:1
g4       d3 c    B4    | edcB  AGFE D4    | dcBA GFED  C4  | AGFE  DCB,A, G,4|
G,B,A,G, A,CB,A, B,DCB,| CEDC  DFEG F4    | GBAG AcBA  BdcB| cedf  egfa   g4 ||
P:2
b4       a3 g    f4    | g2 ba gfed ^c4   | dBAG Fd^cB AGFE| F2 d2 E2 ^c2 d4 |
GBd=c    BAG=F   F2 E2 | Aced  cBAG G2 ^F2| gdcB ecBA  dBAG| cABG  D2  F2 G4|]
